public/cards/6-S.svg

<?xml version="1.0" encoding="UTF-8"?>
<svg width="360px" height="540px" viewBox="0 0 360 540" version="1.1" xmlns="http://www.w3.org/2000/svg" xmlns:xlink="http://www.w3.org/1999/xlink">
    <!-- Generator: Sketch 55.2 (78181) - https://sketchapp.com -->
    <title>6-S</title>
    <desc>Created with Sketch.</desc>
    <g id="Page-1" stroke="none" stroke-width="1" fill="none" fill-rule="evenodd">
        <g id="English_pattern_playing_cards_deck" transform="translate(-1950.000000, -1711.000000)" fill-rule="nonzero">
            <g id="6-S" transform="translate(1950.000000, 1710.637800)">
                <rect id="rect6472-61" stroke="#000000" stroke-width="0.99999976" fill="#FFFFFF" x="0.5" y="0.86218" width="359" height="539" rx="29.944447"></rect>
                <path d="M30,30.36208 C24.46,30.36208 20,34.82208 20,40.36208 L20,60.36208 L20,70.36208 C20,75.90208 24.46,80.36208 30,80.36208 C35.54,80.36208 40,75.90208 40,70.36208 L40,60.36208 C40,54.82208 35.54,50.36208 30,50.36208 C28.17736,50.36208 26.46848,50.86063 25,51.70583 L25,40.36208 C25,37.59208 27.23,35.36208 30,35.36208 C32.77,35.36208 35,37.59208 35,40.36208 L35,41.36208 L40,41.36208 L40,40.36208 C40,34.82208 35.54,30.36208 30,30.36208 Z M30,55.36208 C32.77,55.36208 35,57.59208 35,60.36208 L35,70.36208 C35,73.13208 32.77,75.36208 30,75.36208 C27.23,75.36208 25,73.13208 25,70.36208 L25,60.36208 C25,57.59208 27.23,55.36208 30,55.36208 Z" id="rect3163-7-1-7-3-1-8" fill="#000000"></path>
                <path d="M330,510.3622 C335.54,510.3622 340,505.9022 340,500.3622 L340,480.36216 L340,470.36216 C340,464.82216 335.54,460.36216 330,460.36216 C324.46,460.36216 320,464.82216 320,470.36216 L320,480.36216 C320,485.9022 324.46,490.3622 330,490.3622 C331.82264,490.3622 333.53152,489.8637 335,489.0185 L335,500.3622 C335,503.1322 332.77,505.3622 330,505.3622 C327.23,505.3622 325,503.1322 325,500.3622 L325,499.3622 L320,499.3622 L320,500.3622 C320,505.9022 324.46,510.3622 330,510.3622 Z M330,485.3622 C327.23,485.3622 325,483.1322 325,480.36216 L325,470.36216 C325,467.59216 327.23,465.36216 330,465.36216 C332.77,465.36216 335,467.59216 335,470.36216 L335,480.36216 C335,483.1322 332.77,485.3622 330,485.3622 Z" id="rect3163-7-1-7-3-1-9-2" fill="#000000"></path>
                <path d="M95,101.36218 C97,105.36218 102,111.36218 107,111.36218 C116,111.36218 120,103.36218 120,93.36218 C120,83.36218 116,74.36218 107,74.36218 C102,74.36218 99,79.36218 96,82.36218 C95,83.36218 94,82.36218 95,81.36218 C98,78.36218 103,70.36218 103,63.36218 C103,55.36218 98,45.36218 90,45.36218 C82,45.36218 77,55.36218 77,63.36218 C77,70.36218 82,78.36218 85,81.36218 C86,82.36218 85,83.36218 84,82.36218 C81,79.36218 78,74.36218 73,74.36218 C64,74.36218 60,83.36218 60,93.36218 C60,103.36218 64,111.36218 73,111.36218 C78,111.36218 83,105.36218 85,101.36218 C86,100.36218 86,101.36218 86,102.36218 C85,110.36218 85,112.36218 84,118.36218 C83,124.36218 80,135.36218 80,135.36218 C85,133.36218 95,133.36218 100,135.36218 C100,135.36218 97,124.36218 96,118.36218 C95,112.36218 95,110.36218 94,102.36218 C94,101.36218 94,100.36218 95,101.36218 Z" id="path3037-119" fill="#000000"></path>
                <path d="M275,101.36218 C277,105.36218 282,111.36218 287,111.36218 C296,111.36218 300,103.36218 300,93.36218 C300,83.36218 296,74.36218 287,74.36218 C282,74.36218 279,79.36218 276,82.36218 C275,83.36218 274,82.36218 275,81.36218 C278,78.36218 283,70.36218 283,63.36218 C283,55.36218 278,45.36218 270,45.36218 C262,45.36218 257,55.36218 257,63.36218 C257,70.36218 262,78.36218 265,81.36218 C266,82.36218 265,83.36218 264,82.36218 C261,79.36218 258,74.36218 253,74.36218 C244,74.36218 240,83.36218 240,93.36218 C240,103.36218 244,111.36218 253,111.36218 C258,111.36218 263,105.36218 265,101.36218 C266,100.36218 266,101.36218 266,102.36218 C265,110.36218 265,112.36218 264,118.36218 C263,124.36218 260,135.36218 260,135.36218 C265,133.36218 275,133.36218 280,135.36218 C280,135.36218 277,124.36218 276,118.36218 C275,112.36218 275,110.36218 274,102.36218 C274,101.36218 274,100.36218 275,101.36218 Z" id="path3037-1-7" fill="#000000"></path>
                <path d="M95,281.36218 C97,285.36218 102,291.36218 107,291.36218 C116,291.36218 120,283.36218 120,273.36218 C120,263.36218 116,254.36218 107,254.36218 C102,254.36218 99,259.36218 96,262.36218 C95,263.36218 94,262.36218 95,261.36218 C98,258.36218 103,250.36218 103,243.36218 C103,235.36218 98,225.36218 90,225.36218 C82,225.36218 77,235.36218 77,243.36218 C77,250.36218 82,258.36218 85,261.36218 C86,262.36218 85,263.36218 84,262.36218 C81,259.36218 78,254.36218 73,254.36218 C64,254.36218 60,263.36218 60,273.36218 C60,283.36218 64,291.36218 73,291.36218 C78,291.36218 83,285.36218 85,281.36218 C86,280.36218 86,281.36218 86,282.36218 C85,290.36218 85,292.36218 84,298.36218 C83,304.36218 80,315.36218 80,315.36218 C85,313.36218 95,313.36218 100,315.36218 C100,315.36218 97,304.36218 96,298.36218 C95,292.36218 95,290.36218 94,282.36218 C94,281.36218 94,280.36218 95,281.36218 Z" id="path3037-7-62" fill="#000000"></path>
                <path d="M275,281.36218 C277,285.36218 282,291.36218 287,291.36218 C296,291.36218 300,283.36218 300,273.36218 C300,263.36218 296,254.36218 287,254.36218 C282,254.36218 279,259.36218 276,262.36218 C275,263.36218 274,262.36218 275,261.36218 C278,258.36218 283,250.36218 283,243.36218 C283,235.36218 278,225.36218 270,225.36218 C262,225.36218 257,235.36218 257,243.36218 C257,250.36218 262,258.36218 265,261.36218 C266,262.36218 265,263.36218 264,262.36218 C261,259.36218 258,254.36218 253,254.36218 C244,254.36218 240,263.36218 240,273.36218 C240,283.36218 244,291.36218 253,291.36218 C258,291.36218 263,285.36218 265,281.36218 C266,280.36218 266,281.36218 266,282.36218 C265,290.36218 265,292.36218 264,298.36218 C263,304.36218 260,315.36218 260,315.36218 C265,313.36218 275,313.36218 280,315.36218 C280,315.36218 277,304.36218 276,298.36218 C275,292.36218 275,290.36218 274,282.36218 C274,281.36218 274,280.36218 275,281.36218 Z" id="path3037-4-9" fill="#000000"></path>
                <path d="M95,439.3622 C97,435.3622 102,429.3622 107,429.3622 C116,429.3622 120,437.3622 120,447.3622 C120,457.3622 116,466.3622 107,466.3622 C102,466.3622 99,461.3622 96,458.3622 C95,457.3622 94,458.3622 95,459.3622 C98,462.3622 103,470.3622 103,477.3622 C103,485.3622 98,495.3622 90,495.3622 C82,495.3622 77,485.3622 77,477.3622 C77,470.3622 82,462.3622 85,459.3622 C86,458.3622 85,457.3622 84,458.3622 C81,461.3622 78,466.3622 73,466.3622 C64,466.3622 60,457.3622 60,447.3622 C60,437.3622 64,429.3622 73,429.3622 C78,429.3622 83,435.3622 85,439.3622 C86,440.3622 86,439.3622 86,438.3622 C85,430.3622 85,428.3622 84,422.3622 C83,416.3622 80,405.36218 80,405.36218 C85,407.36218 95,407.36218 100,405.36218 C100,405.36218 97,416.3622 96,422.3622 C95,428.3622 95,430.3622 94,438.3622 C94,439.3622 94,440.3622 95,439.3622 Z" id="path3037-0-5" fill="#000000"></path>
                <path d="M275,439.3622 C277,435.3622 282,429.3622 287,429.3622 C296,429.3622 300,437.3622 300,447.3622 C300,457.3622 296,466.3622 287,466.3622 C282,466.3622 279,461.3622 276,458.3622 C275,457.3622 274,458.3622 275,459.3622 C278,462.3622 283,470.3622 283,477.3622 C283,485.3622 278,495.3622 270,495.3622 C262,495.3622 257,485.3622 257,477.3622 C257,470.3622 262,462.3622 265,459.3622 C266,458.3622 265,457.3622 264,458.3622 C261,461.3622 258,466.3622 253,466.3622 C244,466.3622 240,457.3622 240,447.3622 C240,437.3622 244,429.3622 253,429.3622 C258,429.3622 263,435.3622 265,439.3622 C266,440.3622 266,439.3622 266,438.3622 C265,430.3622 265,428.3622 264,422.3622 C263,416.3622 260,405.36218 260,405.36218 C265,407.36218 275,407.36218 280,405.36218 C280,405.36218 277,416.3622 276,422.3622 C275,428.3622 275,430.3622 274,438.3622 C274,439.3622 274,440.3622 275,439.3622 Z" id="path3037-9-2" fill="#000000"></path>
                <path d="M32.5,118.36218 C33.5,120.36218 36,123.36218 38.5,123.36218 C43,123.36218 45,119.36218 45,114.36218 C45,109.36218 43,104.86218 38.5,104.86218 C36,104.86218 34.5,107.36218 33,108.86218 C32.5,109.36218 32,108.86218 32.5,108.36218 C34,106.86218 36.5,102.86218 36.5,99.36218 C36.5,95.36218 34,90.36218 30,90.36218 C26,90.36218 23.5,95.36218 23.5,99.36218 C23.5,102.86218 26,106.86218 27.5,108.36218 C28,108.86218 27.5,109.36218 27,108.86218 C25.5,107.36218 24,104.86218 21.5,104.86218 C17,104.86218 15,109.36218 15,114.36218 C15,119.36218 17,123.36218 21.5,123.36218 C24,123.36218 26.5,120.36218 27.5,118.36218 C28,117.86218 28,118.36218 28,118.86218 C27.5,122.86218 27.5,123.86218 27,126.86218 C26.5,129.86218 25,135.36218 25,135.36218 C27.5,134.36218 32.5,134.36218 35,135.36218 C35,135.36218 33.5,129.86218 33,126.86218 C32.5,123.86218 32.5,122.86218 32,118.86218 C32,118.36218 32,117.86218 32.5,118.36218 Z" id="path3037-1-4" fill="#000000"></path>
                <path d="M332.5,422.36218 C333.5,420.36218 336,417.36218 338.5,417.36218 C343,417.36218 345,421.36218 345,426.36218 C345,431.36218 343,435.86218 338.5,435.86218 C336,435.86218 334.5,433.36218 333,431.86218 C332.5,431.36218 332,431.86218 332.5,432.36218 C334,433.86218 336.5,437.86218 336.5,441.36218 C336.5,445.36218 334,450.36218 330,450.36218 C326,450.36218 323.5,445.36218 323.5,441.36218 C323.5,437.86218 326,433.86218 327.5,432.36218 C328,431.86218 327.5,431.36218 327,431.86218 C325.5,433.36218 324,435.86218 321.5,435.86218 C317,435.86218 315,431.36218 315,426.36218 C315,421.36218 317,417.36218 321.5,417.36218 C324,417.36218 326.5,420.36218 327.5,422.36218 C328,422.86218 328,422.36218 328,421.86218 C327.5,417.86218 327.5,416.86218 327,413.86218 C326.5,410.86218 325,405.36218 325,405.36218 C327.5,406.36218 332.5,406.36218 335,405.36218 C335,405.36218 333.5,410.86218 333,413.86218 C332.5,416.86218 332.5,417.86218 332,421.86218 C332,422.36218 332,422.86218 332.5,422.36218 Z" id="path3037-1-8-0" fill="#000000"></path>
            </g>
        </g>
    </g>
</svg>

<svg width="360" height="540" xmlns="http://www.w3.org/2000/svg"><g transform="translate(0 -.362)" fill-rule="nonzero" fill="none"><rect stroke="#000" fill="#FFF" x=".5" y=".862" width="359" height="539" rx="29.944"/><path d="M30 30.362c-5.54 0-10 4.46-10 10v30c0 5.54 4.46 10 10 10s10-4.46 10-10v-10c0-5.54-4.46-10-10-10-1.823 0-3.532.499-5 1.344V40.362c0-2.77 2.23-5 5-5s5 2.23 5 5v1h5v-1c0-5.54-4.46-10-10-10zm0 25c2.77 0 5 2.23 5 5v10c0 2.77-2.23 5-5 5s-5-2.23-5-5v-10c0-2.77 2.23-5 5-5zM330 510.362c5.54 0 10-4.46 10-10v-30c0-5.54-4.46-10-10-10s-10 4.46-10 10v10c0 5.54 4.46 10 10 10 1.823 0 3.532-.498 5-1.344v11.344c0 2.77-2.23 5-5 5s-5-2.23-5-5v-1h-5v1c0 5.54 4.46 10 10 10zm0-25c-2.77 0-5-2.23-5-5v-10c0-2.77 2.23-5 5-5s5 2.23 5 5v10c0 2.77-2.23 5-5 5zM95 101.362c2 4 7 10 12 10 9 0 13-8 13-18s-4-19-13-19c-5 0-8 5-11 8-1 1-2 0-1-1 3-3 8-11 8-18 0-8-5-18-13-18s-13 10-13 18c0 7 5 15 8 18 1 1 0 2-1 1-3-3-6-8-11-8-9 0-13 9-13 19s4 18 13 18c5 0 10-6 12-10 1-1 1 0 1 1-1 8-1 10-2 16s-4 17-4 17c5-2 15-2 20 0 0 0-3-11-4-17s-1-8-2-16c0-1 0-2 1-1zM275 101.362c2 4 7 10 12 10 9 0 13-8 13-18s-4-19-13-19c-5 0-8 5-11 8-1 1-2 0-1-1 3-3 8-11 8-18 0-8-5-18-13-18s-13 10-13 18c0 7 5 15 8 18 1 1 0 2-1 1-3-3-6-8-11-8-9 0-13 9-13 19s4 18 13 18c5 0 10-6 12-10 1-1 1 0 1 1-1 8-1 10-2 16s-4 17-4 17c5-2 15-2 20 0 0 0-3-11-4-17s-1-8-2-16c0-1 0-2 1-1zM95 281.362c2 4 7 10 12 10 9 0 13-8 13-18s-4-19-13-19c-5 0-8 5-11 8-1 1-2 0-1-1 3-3 8-11 8-18 0-8-5-18-13-18s-13 10-13 18c0 7 5 15 8 18 1 1 0 2-1 1-3-3-6-8-11-8-9 0-13 9-13 19s4 18 13 18c5 0 10-6 12-10 1-1 1 0 1 1-1 8-1 10-2 16s-4 17-4 17c5-2 15-2 20 0 0 0-3-11-4-17s-1-8-2-16c0-1 0-2 1-1zM275 281.362c2 4 7 10 12 10 9 0 13-8 13-18s-4-19-13-19c-5 0-8 5-11 8-1 1-2 0-1-1 3-3 8-11 8-18 0-8-5-18-13-18s-13 10-13 18c0 7 5 15 8 18 1 1 0 2-1 1-3-3-6-8-11-8-9 0-13 9-13 19s4 18 13 18c5 0 10-6 12-10 1-1 1 0 1 1-1 8-1 10-2 16s-4 17-4 17c5-2 15-2 20 0 0 0-3-11-4-17s-1-8-2-16c0-1 0-2 1-1zM95 439.362c2-4 7-10 12-10 9 0 13 8 13 18s-4 19-13 19c-5 0-8-5-11-8-1-1-2 0-1 1 3 3 8 11 8 18 0 8-5 18-13 18s-13-10-13-18c0-7 5-15 8-18 1-1 0-2-1-1-3 3-6 8-11 8-9 0-13-9-13-19s4-18 13-18c5 0 10 6 12 10 1 1 1 0 1-1-1-8-1-10-2-16s-4-17-4-17c5 2 15 2 20 0 0 0-3 11-4 17s-1 8-2 16c0 1 0 2 1 1zM275 439.362c2-4 7-10 12-10 9 0 13 8 13 18s-4 19-13 19c-5 0-8-5-11-8-1-1-2 0-1 1 3 3 8 11 8 18 0 8-5 18-13 18s-13-10-13-18c0-7 5-15 8-18 1-1 0-2-1-1-3 3-6 8-11 8-9 0-13-9-13-19s4-18 13-18c5 0 10 6 12 10 1 1 1 0 1-1-1-8-1-10-2-16s-4-17-4-17c5 2 15 2 20 0 0 0-3 11-4 17s-1 8-2 16c0 1 0 2 1 1zM32.5 118.362c1 2 3.5 5 6 5 4.5 0 6.5-4 6.5-9s-2-9.5-6.5-9.5c-2.5 0-4 2.5-5.5 4-.5.5-1 0-.5-.5 1.5-1.5 4-5.5 4-9 0-4-2.5-9-6.5-9s-6.5 5-6.5 9c0 3.5 2.5 7.5 4 9 .5.5 0 1-.5.5-1.5-1.5-3-4-5.5-4-4.5 0-6.5 4.5-6.5 9.5s2 9 6.5 9c2.5 0 5-3 6-5 .5-.5.5 0 .5.5-.5 4-.5 5-1 8s-2 8.5-2 8.5c2.5-1 7.5-1 10 0 0 0-1.5-5.5-2-8.5s-.5-4-1-8c0-.5 0-1 .5-.5zM332.5 422.362c1-2 3.5-5 6-5 4.5 0 6.5 4 6.5 9s-2 9.5-6.5 9.5c-2.5 0-4-2.5-5.5-4-.5-.5-1 0-.5.5 1.5 1.5 4 5.5 4 9 0 4-2.5 9-6.5 9s-6.5-5-6.5-9c0-3.5 2.5-7.5 4-9 .5-.5 0-1-.5-.5-1.5 1.5-3 4-5.5 4-4.5 0-6.5-4.5-6.5-9.5s2-9 6.5-9c2.5 0 5 3 6 5 .5.5.5 0 .5-.5-.5-4-.5-5-1-8s-2-8.5-2-8.5c2.5 1 7.5 1 10 0 0 0-1.5 5.5-2 8.5s-.5 4-1 8c0 .5 0 1 .5.5z" fill="#000"/></g></svg>
